public/img/bottle-icon.svg

<svg height="151" viewBox="0 0 79 151" width="79" xmlns="http://www.w3.org/2000/svg"><g fill="none" fill-rule="evenodd" transform="translate(-227 -1630)"><path d="m0 1355h1200v929h-1200z" fill="#f5f5f5"/><path d="m0 0h108v108h-108z" transform="matrix(.98162718 -.190809 .190809 .98162718 106.681457 1615.681647)"/><g transform="matrix(.96592583 .25881905 -.25881905 .96592583 233.251434 1614.579335)"><path d="m0 0h108v108h-108z"/><g fill="#4a4a4a" fill-rule="nonzero" transform="translate(31.2)"><path d="m48.626444 69.0040286v-4.4386379h.0516897c1.2088702 0 2.1859708-.9787681 2.1859708-2.1859709v-5.0188956h.241774c1.2055354 0 2.1859708-.978768 2.1859708-2.1859708v-19.3219145c0-1.2072028-.9804354-2.1859708-2.1859708-2.1859708h-5.4574237c-1.3639391-2.7862374-1.6974205-6.3244754-1.7657842-8.3387033v-14.1229389c0-6.15773472-5.6625148-11.1666259-12.6256072-11.1666259s-12.6272746 5.00889118-12.6272746 11.1666259v14.1229389c-.0700311 2.0142279-.4001778 5.5524659-1.7641168 8.3387033h-5.4574237c-1.2072028 0-2.18597087.9771006-2.18597087 2.1859708v19.3219145c0 1.2072028.97876807 2.1859708 2.18597087 2.1859708h.2401066v5.0188956c0 1.2072028.978768 2.1859709 2.1859708 2.1859709h.053357v4.4386379c-7.22821011.9454199-12.7956827 6.5128924-12.7956827 13.2208716v57.7539828c0 5.525787 5.00388896 10.021117 11.1549541 10.021117h38.0235534c6.1493977 0 11.1516193-4.493662 11.1516193-10.021117v-57.7539828c-.0033348-6.7079792-5.56914-12.2754517-12.7956828-13.2208716zm-43.16583718 22.1548392h51.58791088v36.5428962h-51.58791088zm12.79568278-20.5474587v-7.7951286h4.6837467c.0933748 0 .1867497-.0100044.2767896-.0283459.0883726.0183415.1784126.0283459.2751222.0283459.7236547 0 1.3105821-.5869273 1.3105821-1.310582 0-.7219873-.5885948-1.3122495-1.3105821-1.3122495-.0967096 0-.1867496.0100045-.2751222.0316808-.0917074-.0200089-.1834148-.0316808-.2767896-.0316808h-6.8680501-.0533571v-4.5837023h30.4752011v4.5837023h-.0516896-6.8663828-.0033348-.5535792c-.7236547 0-1.3122494.5902622-1.3122494 1.3122495 0 .7236547.5902621 1.310582 1.3122494 1.310582h.5502444.0033348 4.6837468v7.7951286zm26.1132639-32.5727994h4.4219638v14.9499729h-.1133836-34.8454754-.1133837v-14.9499729h4.4219639zm-21.3728253-12.6022635c.0016674-.0250111.0016674-.0500222.0016674-.0733659v-14.1579544c0-3.74833133 3.7049788-6.79635167 8.2570004-6.79635167s8.255333 3.04802034 8.255333 6.79635167v14.1579544c0 .0233437 0 .0483548.0033348.0733659.0750333 2.3377049.4685414 6.4628703 2.1259441 9.9777646h-20.7708913c1.6590702-3.5148943 2.0509109-7.6400597 2.1276116-9.9777646zm-6.9264095 47.7978944h30.3701545c5.8492644 0 10.6063771 4.033458 10.6063771 8.9906596v6.3111361h-51.58624348v-6.3111361c0-4.9555342 4.76044748-8.9906596 10.60971188-8.9906596zm34.196854 72.3954854h-38.0235534c-3.74166177 0-6.78301248-2.536127-6.78301248-5.650843v-9.65262h51.58791088v9.65262c0 3.113049-3.0413507 5.650843-6.781345 5.650843z"/><path d="m22.2948 43.3308h-1.008c-.522 0-.9444.4224-.9444.9444 0 .5208.4236.9432.9444.9432h1.008c.522 0 .9444-.4224.9444-.9432 0-.522-.4236-.9444-.9444-.9444z"/></g></g></g></svg>

<?xml version="1.0" encoding="UTF-8"?>
<svg width="79px" height="151px" viewBox="0 0 79 151" version="1.1" xmlns="http://www.w3.org/2000/svg" xmlns:xlink="http://www.w3.org/1999/xlink">
    <!-- Generator: Sketch 49.3 (51167) - http://www.bohemiancoding.com/sketch -->
    <title>noun_705877_cc</title>
    <desc>Created with Sketch.</desc>
    <defs></defs>
    <g id="Page-1" stroke="none" stroke-width="1" fill="none" fill-rule="evenodd">
        <g id="Home" transform="translate(-227.000000, -1630.000000)">
            <rect id="Rectangle-7" fill="#F5F5F5" x="0" y="1355" width="1200" height="929"></rect>
            <g id="noun_705877_cc" transform="translate(174.000000, 1679.000000) rotate(-11.000000) translate(-174.000000, -1679.000000) translate(120.000000, 1604.000000)">
                <rect id="Rectangle-path" x="0" y="0" width="108" height="108"></rect>
                <g id="Group" transform="translate(31.200000, 0.000000)"></g>
            </g>
            <g id="noun_705877_cc" transform="translate(266.000000, 1701.000000) rotate(15.000000) translate(-266.000000, -1701.000000) translate(212.000000, 1626.000000)">
                <rect id="Rectangle-path" x="0" y="0" width="108" height="108"></rect>
                <g id="Group" transform="translate(31.200000, 0.000000)" fill="#4A4A4A" fill-rule="nonzero">
                    <path d="M48.626444,69.0040286 L48.626444,64.5653907 L48.6781337,64.5653907 C49.8870039,64.5653907 50.8641045,63.5866226 50.8641045,62.3794198 L50.8641045,57.3605242 L51.1058785,57.3605242 C52.3114139,57.3605242 53.2918493,56.3817562 53.2918493,55.1745534 L53.2918493,35.8526389 C53.2918493,34.6454361 52.3114139,33.6666681 51.1058785,33.6666681 L45.6484548,33.6666681 C44.2845157,30.8804307 43.9510343,27.3421927 43.8826706,25.3279648 L43.8826706,11.2050259 C43.8826706,5.04729118 38.2201558,0.0384 31.2570634,0.0384 C24.293971,0.0384 18.6297888,5.04729118 18.6297888,11.2050259 L18.6297888,25.3279648 C18.5597577,27.3421927 18.229611,30.8804307 16.865672,33.6666681 L11.4082483,33.6666681 C10.2010455,33.6666681 9.22227743,34.6437687 9.22227743,35.8526389 L9.22227743,55.1745534 C9.22227743,56.3817562 10.2010455,57.3605242 11.4082483,57.3605242 L11.6483549,57.3605242 L11.6483549,62.3794198 C11.6483549,63.5866226 12.6271229,64.5653907 13.8343257,64.5653907 L13.8876827,64.5653907 L13.8876827,69.0040286 C6.65947259,69.9494485 1.092,75.516921 1.092,82.2249002 L1.092,139.978883 C1.092,145.50467 6.09588896,150 12.2469541,150 L50.2705075,150 C56.4199052,150 61.4221268,145.506338 61.4221268,139.978883 L61.4221268,82.2249002 C61.418792,75.516921 55.8529868,69.9494485 48.626444,69.0040286 Z M5.46060682,91.1588678 L57.0485177,91.1588678 L57.0485177,127.701764 L5.46060682,127.701764 L5.46060682,91.1588678 Z M18.2562896,70.6114091 L18.2562896,62.8162805 L22.9400363,62.8162805 C23.0334111,62.8162805 23.126786,62.8062761 23.2168259,62.7879346 C23.3051985,62.8062761 23.3952385,62.8162805 23.4919481,62.8162805 C24.2156028,62.8162805 24.8025302,62.2293532 24.8025302,61.5056985 C24.8025302,60.7837112 24.2139354,60.193449 23.4919481,60.193449 C23.3952385,60.193449 23.3051985,60.2034535 23.2168259,60.2251298 C23.1251185,60.2051209 23.0334111,60.193449 22.9400363,60.193449 L16.0719862,60.193449 L16.0186291,60.193449 L16.0186291,55.6097467 L46.4938302,55.6097467 L46.4938302,60.193449 L46.4421406,60.193449 L39.5757578,60.193449 L39.572423,60.193449 L39.0188438,60.193449 C38.2951891,60.193449 37.7065944,60.7837112 37.7065944,61.5056985 C37.7065944,62.2293532 38.2968565,62.8162805 39.0188438,62.8162805 L39.5690882,62.8162805 C39.572423,62.8162805 39.572423,62.8162805 39.572423,62.8162805 L44.2561698,62.8162805 L44.2561698,70.6114091 L18.2562896,70.6114091 Z M44.3695535,38.0386097 L48.7915173,38.0386097 L48.7915173,52.9885826 L48.6781337,52.9885826 L13.8326583,52.9885826 L13.7192746,52.9885826 L13.7192746,38.0386097 L18.1412385,38.0386097 L44.3695535,38.0386097 Z M22.9967282,25.4363462 C22.9983956,25.4113351 22.9983956,25.386324 22.9983956,25.3629803 L22.9983956,11.2050259 C22.9983956,7.45669457 26.7033744,4.40867423 31.255396,4.40867423 C35.8074176,4.40867423 39.510729,7.45669457 39.510729,11.2050259 L39.510729,25.3629803 C39.510729,25.386324 39.510729,25.4113351 39.5140638,25.4363462 C39.5890971,27.7740511 39.9826052,31.8992165 41.6400079,35.4141108 L20.8691166,35.4141108 C22.5281868,31.8992165 22.9200275,27.7740511 22.9967282,25.4363462 Z M16.0703187,73.2342406 L46.4404732,73.2342406 C52.2897376,73.2342406 57.0468503,77.2676986 57.0468503,82.2249002 L57.0468503,88.5360363 L5.46060682,88.5360363 L5.46060682,82.2249002 C5.46060682,77.269366 10.2210543,73.2342406 16.0703187,73.2342406 Z M50.2671727,145.629726 L12.2436193,145.629726 C8.50195753,145.629726 5.46060682,143.093599 5.46060682,139.978883 L5.46060682,130.326263 L57.0485177,130.326263 L57.0485177,139.978883 C57.0485177,143.091932 54.007167,145.629726 50.2671727,145.629726 Z" id="Shape"></path>
                    <path d="M22.2948,43.3308 L21.2868,43.3308 C20.7648,43.3308 20.3424,43.7532 20.3424,44.2752 C20.3424,44.796 20.766,45.2184 21.2868,45.2184 L22.2948,45.2184 C22.8168,45.2184 23.2392,44.796 23.2392,44.2752 C23.2392,43.7532 22.8156,43.3308 22.2948,43.3308 Z" id="Shape"></path>
                </g>
            </g>
        </g>
    </g>
</svg>
